account-key.svg

<svg fill="currentColor" viewBox="0 0 24 24"><path d="M11 10v2H9v2H7v-2H5.8c-.4 1.2-1.5 2-2.8 2-1.7 0-3-1.3-3-3s1.3-3 3-3c1.3 0 2.4.8 2.8 2zm-8 0c-.6 0-1 .4-1 1s.4 1 1 1 1-.4 1-1-.4-1-1-1m13 4c2.7 0 8 1.3 8 4v2H8v-2c0-2.7 5.3-4 8-4m0-2c-2.2 0-4-1.8-4-4s1.8-4 4-4 4 1.8 4 4-1.8 4-4 4"/></svg>

<svg  viewBox="0 0 24 24" fill="currentColor"><path  d="M11 10V12H9V14H7V12H5.8C5.4 13.2 4.3 14 3 14C1.3 14 0 12.7 0 11S1.3 8 3 8C4.3 8 5.4 8.8 5.8 10H11M3 10C2.4 10 2 10.4 2 11S2.4 12 3 12 4 11.6 4 11 3.6 10 3 10M16 14C18.7 14 24 15.3 24 18V20H8V18C8 15.3 13.3 14 16 14M16 12C13.8 12 12 10.2 12 8S13.8 4 16 4 20 5.8 20 8 18.2 12 16 12Z"/></svg>
